picto/residual-waste-framed.svg

<svg class="color-immutable" width="30" height="30" viewBox="0 0 30 30" fill="none" xmlns="http://www.w3.org/2000/svg"><path d="M29.9999 0H0V29.9999H29.9999V0Z" fill="#2D327D"/><path d="M25.4999 2.99999C26.3249 2.99999 26.9999 3.67499 26.9999 4.49999V25.4999C26.9999 26.3249 26.3249 26.9999 25.4999 26.9999H4.49999C3.67499 26.9999 2.99999 26.3249 2.99999 25.4999V4.49999C2.99999 3.67499 3.67499 2.99999 4.49999 2.99999H25.4999ZM25.4999 2.62499H4.49999C3.46612 2.62499 2.62499 3.46612 2.62499 4.49999V25.4999C2.62499 26.5338 3.46612 27.3749 4.49999 27.3749H25.4999C26.5338 27.3749 27.3749 26.5338 27.3749 25.4999V4.49999C27.3749 3.46612 26.5338 2.62499 25.4999 2.62499Z" fill="white"/><path d="M9.13585 18.2228C8.88482 17.941 8.55513 17.7711 8.20945 17.7164C8.16055 17.4867 8.0542 17.2662 7.88688 17.0782C7.39848 16.5298 6.57603 16.4574 6.00011 16.8925C6.05298 16.6713 6.16076 16.4559 6.32958 16.248C6.78648 15.6858 7.1437 15.5697 7.3867 15.4523C7.0078 15.2387 6.46743 15.1166 6.15948 15.1497C6.05351 15.161 6.11883 14.9309 6.13886 14.8741C6.17058 14.784 6.21933 14.6439 6.42626 14.6724C6.7153 14.7122 7.50475 15.1868 7.61088 15.2751C7.76928 15.0495 7.89715 14.6833 8.56045 14.2611C8.69538 14.1753 8.83052 14.1116 8.9656 14.0682C8.6032 14.5859 8.6104 15.2795 9.02567 15.7458C9.23612 15.982 9.51685 16.1206 9.81482 16.1615C9.78475 16.6082 9.92657 17.0661 10.2479 17.4269C10.6532 17.8819 11.2448 18.0708 11.8052 17.9838C11.7883 18.2041 11.7446 18.382 11.6712 18.4942C11.3908 18.9234 11.2382 18.8878 10.9224 19.159C10.6166 19.4414 10.6343 19.5971 10.1757 19.8261C10.0138 19.9071 9.73892 19.9203 9.40765 19.8799C9.6367 19.3387 9.55277 18.6909 9.13585 18.2228Z" fill="white"/><path d="M10.6368 9.49873L12.47 14.5596L16.4498 13.7442L16.1007 8.37913L10.6368 9.49873Z" fill="white"/><path d="M17.5898 17.3637H16.3871C15.647 18.6457 14.706 20.2755 14.1932 21.1638C13.9861 21.5225 14.112 21.983 14.4745 22.1922L17.4279 23.8973C17.7904 24.1066 18.2521 23.9855 18.4592 23.6267L20.2829 20.468L18.013 20.2979L17.5898 17.3637Z" fill="white"/><path d="M23.9054 10.7497L22.5996 9.99583C22.5094 9.94378 22.3944 9.9743 22.3426 10.064L22.1491 10.3992C22.0998 10.4847 22.1251 10.5938 22.2072 10.6488L22.2169 10.6553C22.2169 10.6553 20.9413 12.4639 20.4394 13.3332C19.9376 14.2024 18.043 14.4956 17.1696 16.0083C17.1266 16.0829 17.0793 16.1647 17.0286 16.2526H18.5522L18.9854 19.2566L20.8995 19.4001L21.4356 18.4713C22.309 16.9586 21.6156 15.1713 22.1175 14.302L22.116 14.3011C22.6178 13.4319 23.5215 11.4111 23.5215 11.4111L23.5369 11.4184C23.6253 11.4608 23.7314 11.428 23.7804 11.3431L23.9748 11.0064C24.0267 10.9167 23.9955 10.8018 23.9054 10.7497Z" fill="white"/><path d="M15.7206 6.61769L15.3627 6.73259L14.9915 6.00014L10.4599 7.90401L10.5158 8.28876L10.1185 8.41633L10.2315 9.0326L15.9875 7.18453L15.7206 6.61769Z" fill="white"/></svg>

<svg class="color-immutable" width="30" height="30" viewBox="0 0 30 30" fill="none" xmlns="http://www.w3.org/2000/svg"><path d="M30 0H0v30h30V0Z" fill="#2D327D"/><path d="M25.5 3c.825 0 1.5.675 1.5 1.5v21c0 .825-.675 1.5-1.5 1.5h-21c-.825 0-1.5-.675-1.5-1.5v-21C3 3.675 3.675 3 4.5 3h21Zm0-.375h-21A1.877 1.877 0 0 0 2.625 4.5v21c0 1.034.841 1.875 1.875 1.875h21a1.877 1.877 0 0 0 1.875-1.875v-21A1.877 1.877 0 0 0 25.5 2.625Z" fill="#fff"/><path d="M9.136 18.223a1.564 1.564 0 0 0-.927-.507A1.399 1.399 0 0 0 6 16.892c.054-.22.162-.436.33-.644.457-.562.815-.678 1.058-.796-.38-.213-.92-.335-1.228-.302-.105.011-.04-.22-.02-.276.032-.09.08-.23.287-.202.29.04 1.079.515 1.185.603.158-.226.286-.592.95-1.014.134-.086.27-.15.405-.193-.363.518-.356 1.212.06 1.678.21.236.49.375.789.415a1.726 1.726 0 0 0 1.99 1.822c-.017.221-.06.399-.134.511-.28.43-.433.394-.749.665-.305.282-.288.438-.746.667-.162.081-.437.094-.768.054a1.57 1.57 0 0 0-.272-1.657ZM10.637 9.499l1.833 5.06 3.98-.815-.35-5.365-5.463 1.12ZM17.59 17.364h-1.203l-2.194 3.8a.754.754 0 0 0 .282 1.028l2.953 1.705a.754.754 0 0 0 1.031-.27l1.824-3.159-2.27-.17-.423-2.934Z" fill="#fff"/><path d="M23.905 10.75 22.6 9.996a.188.188 0 0 0-.257.068l-.194.335a.188.188 0 0 0 .058.25l.01.006s-1.276 1.809-1.778 2.678c-.501.87-2.396 1.163-3.27 2.675l-.14.245h1.523l.433 3.004 1.915.143.536-.929c.873-1.512.18-3.3.681-4.169h-.001c.502-.87 1.405-2.89 1.405-2.89l.016.006c.088.043.194.01.243-.075l.195-.337a.188.188 0 0 0-.07-.256ZM15.72 6.618l-.357.115L14.992 6 10.46 7.904l.056.385-.398.127.114.617 5.756-1.848-.267-.567Z" fill="#fff"/></svg>
